X: 880
T: Shady Grove
B: jims roots
M:C|
L:1/8
R: Reel
Q: 1/4=100
K:C
V:1 
%N:Transcribed by Bruce Thomson
%H:From the playing of the Bruce Molsky &#038; Big Hoedown (Rounder CD-0421)
"Dm"C-D2 D DDD2 | "C"DEDC A,A,A,A, | "Dm"C-D D2 DEFG | "F"G-A2 A AAAA |
"Dm"Accc A2 AA | "C"GAGE C2 CD | DEGD AGEC |"Dm"D2 D(D D)DDD :|
"Dm"{C}DD DD D2 DE | "C"GAGE C2 CC | "Dm"C-D2 D DEFG | "F"G-A2 A A2A2 |
"Dm"Accc A2 A2 | "C"GAGE GECC | DEGD AGEC |"Dm"D2 D(D D)DDD :|
% abcbook-tune_id 6298c287a521165de7c44e18


% abcbook-boost 0
% abcbook-tablature 
% abcbook-transpose 
% abcbook-lastupdated 1654178440269
% abcbook-soundfonts 
% abcbook-repeats 1


